app/images/markers/numbered/9.svg

<svg height="46" viewBox="0 0 40 46" width="40" xmlns="http://www.w3.org/2000/svg"><g fill="none" fill-rule="evenodd"><path d="m20 46.037c1.732 0 3.412-6.257 5.015-6.67 8.618-2.227 14.985-10.054 14.985-19.367 0-11.046-8.954-20-20-20s-20 8.954-20 20c0 9.318 6.372 17.147 14.996 19.37 1.6.41 3.276 6.667 5.004 6.667z" fill="#000" fill-rule="nonzero"/><path d="m20 46.037c1.732 0 3.412-6.257 5.015-6.67 8.618-2.227 14.985-10.054 14.985-19.367 0-11.046-8.954-20-20-20s-20 8.954-20 20c0 9.318 6.372 17.147 14.996 19.37 1.6.41 3.276 6.667 5.004 6.667z" fill="#00a862"/><g transform="translate(11 8)"><path d="m17.688 2.35c-.108-.46-.587-1.65-1.5-1.65h-14.378c-.912 0-1.39 1.19-1.503 1.682l-.295 1.634c-.033.188.018.38.14.527.122.146.302.23.493.23h.824l1.158 16.44c.06.962.863 1.715 1.83 1.715h9.09c.967 0 1.77-.753 1.83-1.71l1.156-16.445h.826c.192 0 .372-.084.494-.23s.173-.34.14-.527l-.302-1.666z" fill="#fff" fill-rule="nonzero"/><path d="m5.86747071 16.9301758v-1.3583985c.79980869.325848 1.54670877.4887696 2.24072266.4887696.7405636 0 1.32560006-.3078583 1.75512695-.923584.42952688-.6157257.64428708-1.4546659.64428708-2.5168457-.59668264.7151728-1.3330034 1.0727539-2.20898434 1.0727539-.82519944 0-1.51920292-.2856417-2.08203125-.8569336-.56282834-.5712919-.84423829-1.2758747-.84423829-2.1137695 0-.97754398.31843757-1.78051447.95532227-2.40893558.63688469-.62842111 1.4504345-.94262695 2.44067383-.94262695 1.159511 0 2.06827468.41259353 2.72631838 1.23779297.6580436.82519944.9870605 1.96353436.9870605 3.41503906 0 1.6250081-.3872031 2.8998163-1.1616211 3.8244629-.7744179.9246465-1.84292935 1.3869629-3.20556638 1.3869629-.5797555 0-1.32877145-.1015615-2.24707031-.3046875zm1.38378906-6.5c0 .6516959.14070498 1.165851.42211914 1.5424804.28141417.3766295.66332767.5649415 1.14575196.5649415.45703353 0 .84212083-.171385 1.15527344-.5141602.31315259-.3427752.46972659-.7638321.46972659-1.2631836 0-.6643913-.1534002-1.19970499-.46020511-1.60595702-.30680492-.40625204-.70987706-.609375-1.20922852-.609375-.46549712 0-.83577336.16926914-1.11083984.5078125-.27506648.33854335-.41259766.7976859-.41259766 1.37744142z" fill="#4a4a4a"/></g></g></svg>

<?xml version="1.0" encoding="UTF-8"?>
<svg width="40px" height="46px" viewBox="0 0 40 46" version="1.1" xmlns="http://www.w3.org/2000/svg" xmlns:xlink="http://www.w3.org/1999/xlink">
    <!-- Generator: Sketch 47.1 (45422) - http://www.bohemiancoding.com/sketch -->
    <title>starbucks-marker</title>
    <desc>Created with Sketch.</desc>
    <defs></defs>
    <g id="Page-1" stroke="none" stroke-width="1" fill="none" fill-rule="evenodd">
        <g id="starbucks-marker">
            <g id="Group">
                <g id="b-link">
                    <g id="b">
                        <g id="path-1-link" fill-rule="nonzero" fill="#000000">
                            <path d="M20,46.037 C21.732,46.037 23.412,39.78 25.015,39.367 C33.633,37.14 40,29.313 40,20 C40,8.954 31.046,0 20,0 C8.954,0 0,8.954 0,20 C0,29.318 6.372,37.147 14.996,39.37 C16.596,39.78 18.272,46.037 20,46.037 Z" id="path-1"></path>
                        </g>
                        <g id="path-1-link" fill="#00A862">
                            <path d="M20,46.037 C21.732,46.037 23.412,39.78 25.015,39.367 C33.633,37.14 40,29.313 40,20 C40,8.954 31.046,0 20,0 C8.954,0 0,8.954 0,20 C0,29.318 6.372,37.147 14.996,39.37 C16.596,39.78 18.272,46.037 20,46.037 Z" id="path-1"></path>
                        </g>
                    </g>
                </g>
            </g>
            <g id="Group" transform="translate(11.000000, 8.000000)">
                <g id="d-link">
                    <path d="M17.688,2.35 C17.58,1.89 17.101,0.7 16.188,0.7 L1.81,0.7 C0.898,0.7 0.42,1.89 0.307,2.382 L0.012,4.016 C-0.021,4.204 0.03,4.396 0.152,4.543 C0.274,4.689 0.454,4.773 0.645,4.773 L1.469,4.773 L2.627,21.213 C2.687,22.175 3.49,22.928 4.457,22.928 L13.547,22.928 C14.514,22.928 15.317,22.175 15.377,21.218 L16.533,4.773 L17.359,4.773 C17.551,4.773 17.731,4.689 17.853,4.543 C17.975,4.397 18.026,4.203 17.993,4.016 L17.691,2.35 L17.688,2.35 Z" id="d" fill="#FFFFFF" fill-rule="nonzero"></path>
                    <path d="M5.86747071,16.9301758 L5.86747071,15.5717773 C6.6672794,15.8976253 7.41417948,16.0605469 8.10819337,16.0605469 C8.84875697,16.0605469 9.43379343,15.7526886 9.86332032,15.1369629 C10.2928472,14.5212372 10.5076074,13.682297 10.5076074,12.6201172 C9.91092476,13.33529 9.174604,13.6928711 8.29862306,13.6928711 C7.47342362,13.6928711 6.77942014,13.4072294 6.21659181,12.8359375 C5.65376347,12.2646456 5.37235352,11.5600628 5.37235352,10.722168 C5.37235352,9.74462402 5.69079109,8.94165353 6.32767579,8.31323242 C6.96456048,7.68481131 7.77811029,7.37060547 8.76834962,7.37060547 C9.92786062,7.37060547 10.8366243,7.783199 11.494668,8.60839844 C12.1527116,9.43359788 12.4817285,10.5719328 12.4817285,12.0234375 C12.4817285,13.6484456 12.0945254,14.9232538 11.3201074,15.8479004 C10.5456895,16.7725469 9.47717805,17.2348633 8.11454102,17.2348633 C7.53478552,17.2348633 6.78576957,17.1333018 5.86747071,16.9301758 Z M7.25125977,10.4301758 C7.25125977,11.0818717 7.39196475,11.5960268 7.67337891,11.9726562 C7.95479308,12.3492857 8.33670658,12.5375977 8.81913087,12.5375977 C9.2761644,12.5375977 9.6612517,12.3662127 9.97440431,12.0234375 C10.2875569,11.6806623 10.4441309,11.2596054 10.4441309,10.7602539 C10.4441309,10.0958626 10.2907307,9.56054891 9.98392579,9.15429688 C9.67712087,8.74804484 9.27404873,8.54492188 8.77469727,8.54492188 C8.30920015,8.54492188 7.93892391,8.71419102 7.66385743,9.05273438 C7.38879095,9.39127773 7.25125977,9.85042028 7.25125977,10.4301758 Z" id="9" fill="#4A4A4A"></path>
                </g>
            </g>
        </g>
    </g>
</svg>
